src/pages/datadetail/img/calendar.svg

<svg xmlns="http://www.w3.org/2000/svg" class="icon-calendar" width="18" height="19"><path class="primary" d="M2 2h14a2 2 0 0 1 2 2v13a2 2 0 0 1-2 2H2a2 2 0 0 1-2-2V4c0-1.1.9-2 2-2Zm0 5v10h14V7Z" style="fill:#102a43;fill-opacity:1"/><path class="secondary" d="M4 0a1 1 0 0 1 1 1v3a1 1 0 1 1-2 0V1a1 1 0 0 1 1-1Zm10 0a1 1 0 0 1 1 1v3a1 1 0 0 1-2 0V1a1 1 0 0 1 1-1z" style="fill:#102a43;fill-opacity:1"/></svg>

<?xml version="1.0" encoding="UTF-8" standalone="no"?>
<svg
   xmlns:dc="http://purl.org/dc/elements/1.1/"
   xmlns:cc="http://creativecommons.org/ns#"
   xmlns:rdf="http://www.w3.org/1999/02/22-rdf-syntax-ns#"
   xmlns:svg="http://www.w3.org/2000/svg"
   xmlns="http://www.w3.org/2000/svg"
   xmlns:sodipodi="http://sodipodi.sourceforge.net/DTD/sodipodi-0.dtd"
   xmlns:inkscape="http://www.inkscape.org/namespaces/inkscape"
   viewBox="0 0 18 19"
   class="icon-calendar"
   version="1.1"
   id="svg6"
   sodipodi:docname="calendar.svg"
   width="18"
   height="19"
   inkscape:version="0.92.3 (2405546, 2018-03-11)">
  <metadata
     id="metadata12">
    <rdf:RDF>
      <cc:Work
         rdf:about="">
        <dc:format>image/svg+xml</dc:format>
        <dc:type
           rdf:resource="http://purl.org/dc/dcmitype/StillImage" />
        <dc:title></dc:title>
      </cc:Work>
    </rdf:RDF>
  </metadata>
  <defs
     id="defs10" />
  <sodipodi:namedview
     pagecolor="#ffffff"
     bordercolor="#666666"
     borderopacity="1"
     objecttolerance="10"
     gridtolerance="10"
     guidetolerance="10"
     inkscape:pageopacity="0"
     inkscape:pageshadow="2"
     inkscape:window-width="1859"
     inkscape:window-height="1025"
     id="namedview8"
     showgrid="false"
     inkscape:zoom="9.8333333"
     inkscape:cx="9"
     inkscape:cy="9"
     inkscape:window-x="61"
     inkscape:window-y="27"
     inkscape:window-maximized="1"
     inkscape:current-layer="svg6" />
  <path
     class="primary"
     d="m 2,2 h 14 a 2,2 0 0 1 2,2 v 13 a 2,2 0 0 1 -2,2 H 2 A 2,2 0 0 1 0,17 V 4 C 0,2.9 0.9,2 2,2 Z M 2,7 V 17 H 16 V 7 Z"
     id="path2"
     style="fill:#102a43;fill-opacity:1"
     inkscape:connector-curvature="0" />
  <path
     class="secondary"
     d="M 4,0 A 1,1 0 0 1 5,1 V 4 A 1,1 0 1 1 3,4 V 1 A 1,1 0 0 1 4,0 Z m 10,0 a 1,1 0 0 1 1,1 V 4 A 1,1 0 0 1 13,4 V 1 a 1,1 0 0 1 1,-1 z"
     id="path4"
     style="fill:#102a43;fill-opacity:1"
     inkscape:connector-curvature="0" />
</svg>
